!!!OTL: WIE IN DEM FRUEHLING UND SO IM SOMMER
!!!ARE: Europa, Mitteleuropa, Deutschland, Hesssen, Dillkreis, Schwalbach
!!!SCT: E0731C
!!!YEM: Copyright 1995, estate of Helmut Schaffrath.
**kern
*ICvox
*Ivox
*M3/4
*k[f#c#g#d#]
*E:
{8e
8e
8g#
=1
4b
8a
8g#
8a
8cc#
=2
4cc#
8b}
{8e
8e
8g#
=3
4b
8a
8g#
8a
8cc#
=4
4cc#
8b}
{8b
8b
16cc#
16dd#
=5
4ee
8dd#
8ff#
16ee
16dd#
8cc#
=6
4b
8r}
{8ee
8cc#
8b
=7
4g#
4b
8cc#
8b
=8
4.g#}
==
!!!AGN: Liebes - Lied, Leid, Klage, Tod
!!!ONB: ESAC (Essen Associative Code) Database: ERK2
!!!AMT: simple triple
!!!AIN: vox
!!!EED: Helmut Schaffrath
!!!EEV: 1.0
*-
